svgs/zeus.svg

<svg width="192" height="192" viewBox="0 0 192 192" xml:space="preserve" xmlns="http://www.w3.org/2000/svg"><g fill="none" stroke="#000" stroke-linecap="round" stroke-linejoin="round" stroke-miterlimit="15" stroke-width="12"><path d="M124.63 52.461c10.757 2.882 23.601 20.739 25.148 26.515m-.008-.001c2.606 9.724-5.765 15.515-5.765 15.515-4.19 4.19-28.597 17.666-28.597 17.666m.002.004c-3.33 1.922-6.3 4.313-6.3 4.313l40.686 53.532M42.101 21.998 118.04 50.03M42.101 21.998l40.553 53.359M149.8 170l-72.257-26.672m-6.78-3.228c-7.725-4.46-14.986-10.056-17.23-12.3-6.172-6.172-8.4-10.996-8.4-10.996-4.832-8.37.844-15.966.844-15.966" style="paint-order:markers stroke fill"/><path d="M45.977 100.84c2.214-3.834 8.87-8.456 8.87-8.456m-.001-.004c2.983-1.722 27.807-17.023 27.807-17.023m-5.112 67.973c-3.087-1.14-3.097-1.148-6.778-3.233M118.04 50.03l6.586 2.431m-3.296-1.216c0 11.075-1.714 16.238-1.714 16.238m.004.001c-4.117 15.756-21.454 28.282-21.454 28.282m-.001 0c-17.745 10.245-18.239 13.788-22.016 20.404" style="paint-order:markers stroke fill"/><path d="M76.148 116.17c-2.207 3.822-2.812 17.471-1.996 25.875m34.958-25.575c-9.592 5.538-10.531 15.357-10.531 15.357-.927 6.795 3.192 15.196 3.192 15.196" style="paint-order:markers stroke fill"/><path d="M101.77 147.02c1.85 3.203 4.01 6.733 4.01 6.733M82.654 75.357C93.568 69.056 93.06 58.821 93.06 58.821m0 0c0-11.821-5.607-20.082-5.607-20.082" style="paint-order:markers stroke fill"/></g></svg>

<svg width="192" height="192" viewBox="0 0 192 192" xml:space="preserve" xmlns="http://www.w3.org/2000/svg"><g fill="none" stroke="#000" stroke-linecap="round" stroke-linejoin="round" stroke-miterlimit="15" stroke-width="12"><path d="M124.63 52.461c10.757 2.882 23.601 20.739 25.148 26.515M149.77 78.975c2.606 9.724-5.765 15.515-5.765 15.515-4.19 4.19-28.597 17.666-28.597 17.666M115.41 112.16c-3.33 1.922-6.3 4.313-6.3 4.313l40.686 53.532M42.101 21.998 118.04 50.03M42.101 21.998l40.553 53.359M149.8 170l-72.257-26.672M70.763 140.1c-7.725-4.46-14.986-10.056-17.23-12.3-6.172-6.172-8.4-10.996-8.4-10.996-4.832-8.37.844-15.966.844-15.966" style="paint-order:markers stroke fill"/><path d="M45.977 100.84c2.214-3.834 8.87-8.456 8.87-8.456M54.846 92.38c2.983-1.722 27.807-17.023 27.807-17.023M77.541 143.33c-3.087-1.14-3.097-1.148-6.778-3.233M118.04 50.03l6.586 2.431M121.33 51.245c0 11.075-1.714 16.238-1.714 16.238M119.62 67.484c-4.117 15.756-21.454 28.282-21.454 28.282M98.165 95.766c-17.745 10.245-18.239 13.788-22.016 20.404" style="paint-order:markers stroke fill"/><path d="M76.148 116.17c-2.207 3.822-2.812 17.471-1.996 25.875M109.11 116.47c-9.592 5.538-10.531 15.357-10.531 15.357-.927 6.795 3.192 15.196 3.192 15.196" style="paint-order:markers stroke fill"/><path d="M101.77 147.02c1.85 3.203 4.01 6.733 4.01 6.733M82.654 75.357C93.568 69.056 93.06 58.821 93.06 58.821M93.06 58.821c0-11.821-5.607-20.082-5.607-20.082" style="paint-order:markers stroke fill"/></g></svg>
